img/section2/icons/bed.svg

<svg xmlns="http://www.w3.org/2000/svg" width="512" height="512" style="shape-rendering:geometricPrecision;text-rendering:geometricPrecision;image-rendering:optimizeQuality;fill-rule:evenodd;clip-rule:evenodd"><path fill="#1F628E" d="M97.5 61.5q158-.25 316 .5 25.763 5.26 33.5 30.5a3406 3406 0 0 1 1.5 140q36.948 2.194 46.5 38 1 110.5 0 221-.75 2.75-3.5 3.5a552 552 0 0 1-47 0 9.5 9.5 0 0 1-2.5-1.5 575 575 0 0 1-1.5-58h-370q.25 28.005-.5 56-1.25 2.25-3.5 3.5a552 552 0 0 1-47 0q-2.75-.75-3.5-3.5-1-109 0-218 8.523-37.277 46.5-41-.69-70.04 1.5-140 7.999-25.259 33.5-31m2 17q158.065-.737 316 1.5 13.734 5.716 15.5 20.5.75 65.998.5 132h-65q.25-17.007-.5-34-1.874-21.002-19.5-32.5a49.7 49.7 0 0 0-15-5 5773 5773 0 0 0-152 0q-23.386 4.377-32.5 26.5a73.6 73.6 0 0 0-2 11 578 578 0 0 0-.5 34h-65q-.25-66.002.5-132 2.688-17.43 19.5-22m82 99q76.07-.723 152 1.5 10.887 4.386 14.5 15.5a268 268 0 0 1 1.5 38h-188q-.25-16.507.5-33 2.688-17.43 19.5-22m-124 72q198.5-.25 397 .5 18.75 4.75 23.5 23.5a2114 2114 0 0 1 1.5 110h-447q-.25-54.003.5-108 4.875-20.121 24.5-26m-26 150h448v20h-448zm0 36h22v44h-22zm426 0h22v44h-22z" style="opacity:.965"/></svg>

<svg xmlns="http://www.w3.org/2000/svg" xmlns:xlink="http://www.w3.org/1999/xlink" width="512px" height="512px" style="shape-rendering:geometricPrecision; text-rendering:geometricPrecision; image-rendering:optimizeQuality; fill-rule:evenodd; clip-rule:evenodd"><g><path style="opacity:0.965" fill="#1F628E" d="M 97.5,61.5 C 202.834,61.3333 308.167,61.5 413.5,62C 430.676,65.5068 441.842,75.6734 447,92.5C 448.459,139.14 448.959,185.807 448.5,232.5C 473.132,233.963 488.632,246.629 495,270.5C 495.667,344.167 495.667,417.833 495,491.5C 494.5,493.333 493.333,494.5 491.5,495C 475.833,495.667 460.167,495.667 444.5,495C 443.584,494.626 442.75,494.126 442,493.5C 440.525,474.259 440.025,454.926 440.5,435.5C 317.167,435.5 193.833,435.5 70.5,435.5C 70.6666,454.17 70.4999,472.836 70,491.5C 69.1667,493 68,494.167 66.5,495C 50.8333,495.667 35.1667,495.667 19.5,495C 17.6667,494.5 16.5,493.333 16,491.5C 15.3333,418.833 15.3333,346.167 16,273.5C 21.6819,248.649 37.1819,234.982 62.5,232.5C 62.0406,185.807 62.5406,139.14 64,92.5C 69.3325,75.6609 80.4992,65.3276 97.5,61.5 Z M 99.5,78.5 C 204.877,78.0086 310.21,78.5086 415.5,80C 424.656,83.8111 429.823,90.6444 431,100.5C 431.5,144.499 431.667,188.499 431.5,232.5C 409.833,232.5 388.167,232.5 366.5,232.5C 366.667,221.162 366.5,209.828 366,198.5C 364.751,184.499 358.251,173.665 346.5,166C 341.768,163.534 336.768,161.867 331.5,161C 280.833,160.333 230.167,160.333 179.5,161C 163.909,163.918 153.076,172.751 147,187.5C 146.055,191.114 145.388,194.781 145,198.5C 144.5,209.828 144.333,221.162 144.5,232.5C 122.833,232.5 101.167,232.5 79.5,232.5C 79.3333,188.499 79.5,144.499 80,100.5C 81.7923,88.8802 88.2923,81.5469 99.5,78.5 Z M 181.5,177.5 C 232.213,177.018 282.88,177.518 333.5,179C 340.758,181.924 345.592,187.091 348,194.5C 349.398,207.114 349.898,219.781 349.5,232.5C 286.833,232.5 224.167,232.5 161.5,232.5C 161.333,221.495 161.5,210.495 162,199.5C 163.792,187.88 170.292,180.547 181.5,177.5 Z M 57.5,249.5 C 189.834,249.333 322.167,249.5 454.5,250C 467,253.167 474.833,261 478,273.5C 479.454,310.136 479.954,346.802 479.5,383.5C 330.5,383.5 181.5,383.5 32.5,383.5C 32.3333,347.498 32.5,311.498 33,275.5C 36.2501,262.086 44.4167,253.419 57.5,249.5 Z M 31.5,399.5 C 180.833,399.5 330.167,399.5 479.5,399.5C 479.5,406.167 479.5,412.833 479.5,419.5C 330.167,419.5 180.833,419.5 31.5,419.5C 31.5,412.833 31.5,406.167 31.5,399.5 Z M 31.5,435.5 C 38.8333,435.5 46.1667,435.5 53.5,435.5C 53.5,450.167 53.5,464.833 53.5,479.5C 46.1667,479.5 38.8333,479.5 31.5,479.5C 31.5,464.833 31.5,450.167 31.5,435.5 Z M 457.5,435.5 C 464.833,435.5 472.167,435.5 479.5,435.5C 479.5,450.167 479.5,464.833 479.5,479.5C 472.167,479.5 464.833,479.5 457.5,479.5C 457.5,464.833 457.5,450.167 457.5,435.5 Z"></path></g></svg>
